packages/icons/src/send-chat.svg

<svg width="24" height="24" viewBox="0 0 24 24" fill="none" xmlns="http://www.w3.org/2000/svg">
<path d="M3.66279 9.31637L17.6628 2.31436C18.2153 2.03929 18.8392 1.94136 19.4494 2.03393C20.0595 2.1265 20.6263 2.40506 21.0725 2.83162C21.5186 3.25819 21.8223 3.81201 21.9423 4.41757C22.0623 5.02313 21.9926 5.65097 21.7428 6.21548L19.3428 11.587C19.2883 11.7169 19.2603 11.8563 19.2603 11.9971C19.2603 12.138 19.2883 12.2774 19.3428 12.4073L21.7428 17.7788C21.9461 18.2356 22.032 18.7361 21.9928 19.2346C21.9536 19.7331 21.7905 20.2139 21.5182 20.6333C21.246 21.0527 20.8733 21.3974 20.434 21.6361C19.9947 21.8748 19.5027 21.9999 19.0028 22C18.5346 21.9953 18.0733 21.886 17.6528 21.6799L3.65279 14.6779C3.15619 14.428 2.73877 14.045 2.4471 13.5717C2.15543 13.0983 2.00098 12.5532 2.00098 11.9971C2.00098 11.4411 2.15543 10.896 2.4471 10.4226C2.73877 9.94924 3.15619 9.56625 3.65279 9.31637H3.66279ZM4.55279 12.8874L18.5528 19.8894C18.7366 19.9777 18.9431 20.0077 19.1444 19.9753C19.3458 19.9429 19.5324 19.8497 19.6793 19.7082C19.8262 19.5667 19.9263 19.3837 19.9663 19.1836C20.0062 18.9836 19.9841 18.7761 19.9028 18.589L17.5128 13.2175C17.4819 13.1458 17.4551 13.0723 17.4328 12.9974H10.5428C10.2776 12.9974 10.0232 12.892 9.83569 12.7044C9.64815 12.5169 9.54279 12.2624 9.54279 11.9971C9.54279 11.7318 9.64815 11.4774 9.83569 11.2898C10.0232 11.1022 10.2776 10.9968 10.5428 10.9968H17.4328C17.4551 10.922 17.4819 10.8485 17.5128 10.7768L19.9028 5.40524C19.9841 5.21815 20.0062 5.01068 19.9663 4.81064C19.9263 4.61061 19.8262 4.42757 19.6793 4.28607C19.5324 4.14458 19.3458 4.05139 19.1444 4.019C18.9431 3.98661 18.7366 4.01658 18.5528 4.10487L4.55279 11.1069C4.38899 11.1908 4.25153 11.3184 4.15553 11.4754C4.05954 11.6325 4.00875 11.813 4.00875 11.9971C4.00875 12.1812 4.05954 12.3618 4.15553 12.5188C4.25153 12.6759 4.38899 12.8034 4.55279 12.8874Z" fill="black"/>
</svg>

<svg xmlns="http://www.w3.org/2000/svg" width="24" height="24" fill="none" viewBox="0 0 24 24">
  <path fill="#000" d="m3.663 9.316 14-7.002a3 3 0 0 1 4.08 3.901l-2.4 5.372a1.06 1.06 0 0 0 0 .82l2.4 5.372A3.002 3.002 0 0 1 19.003 22a3.139 3.139 0 0 1-1.35-.32l-14-7.002a3 3 0 0 1 0-5.362h.01Zm.89 3.571 14 7.002a1 1 0 0 0 1.35-1.3l-2.39-5.371a1.994 1.994 0 0 1-.08-.22h-6.89a1 1 0 0 1 0-2.001h6.89a2 2 0 0 1 .08-.22l2.39-5.372a1 1 0 0 0-1.35-1.3l-14 7.002a1 1 0 0 0 0 1.78Z"/>
</svg>
